dist/assets/img/add_icon.svg

<svg width="17" height="17" viewBox="0 0 17 17" fill="none" xmlns="http://www.w3.org/2000/svg">
<path d="M11.5547 7.96875H9.03125V5.44531C9.03125 5.37227 8.97148 5.3125 8.89844 5.3125H8.10156C8.02852 5.3125 7.96875 5.37227 7.96875 5.44531V7.96875H5.44531C5.37227 7.96875 5.3125 8.02852 5.3125 8.10156V8.89844C5.3125 8.97148 5.37227 9.03125 5.44531 9.03125H7.96875V11.5547C7.96875 11.6277 8.02852 11.6875 8.10156 11.6875H8.89844C8.97148 11.6875 9.03125 11.6277 9.03125 11.5547V9.03125H11.5547C11.6277 9.03125 11.6875 8.97148 11.6875 8.89844V8.10156C11.6875 8.02852 11.6277 7.96875 11.5547 7.96875Z" fill="#E06012"/>
<path d="M8.5 1.0625C4.39277 1.0625 1.0625 4.39277 1.0625 8.5C1.0625 12.6072 4.39277 15.9375 8.5 15.9375C12.6072 15.9375 15.9375 12.6072 15.9375 8.5C15.9375 4.39277 12.6072 1.0625 8.5 1.0625ZM8.5 14.6758C5.09004 14.6758 2.32422 11.91 2.32422 8.5C2.32422 5.09004 5.09004 2.32422 8.5 2.32422C11.91 2.32422 14.6758 5.09004 14.6758 8.5C14.6758 11.91 11.91 14.6758 8.5 14.6758Z" fill="#E06012"/>
</svg>

<svg width="17" height="17" fill="none" xmlns="http://www.w3.org/2000/svg"><path d="M11.555 7.969H9.03V5.445a.133.133 0 00-.133-.133h-.796a.133.133 0 00-.133.133V7.97H5.445a.133.133 0 00-.133.133v.796c0 .073.06.133.133.133H7.97v2.524c0 .073.06.133.133.133h.796c.073 0 .133-.06.133-.133V9.03h2.524c.073 0 .133-.06.133-.133v-.796a.133.133 0 00-.133-.133z" fill="#E06012"/><path d="M8.5 1.063a7.438 7.438 0 10.001 14.875A7.438 7.438 0 008.5 1.062zm0 13.613a6.177 6.177 0 010-12.352 6.177 6.177 0 010 12.352z" fill="#E06012"/></svg>
